X: 053
T: The Weaver, a Reel
C: attr. John French (1753-1803)
R: reel
B: "John French Collection", John French ed. p.5 #3
S: http://www.heallan.com/french.asp
Z: 2012 John Chambers <jc:trillian.mit.edu>
M: C
L: 1/8
K: Gm
c | (B/c/d) (cB) {B}A2(GF) | CF(Ac B)AGF | GABc dfBd | cAd^F G2G, :|
d | (g/a/b) (ag) fgfe | dbdB caAF | (g/a/b) (ag) fgfe | dba^f g2(Gd) |
    (g/a/b) (ag) fgfe | dbca BgAf | Bfcf dg^fg | dba^f g2G |]

%%sep 2 1 500
%%sep 1 1 500

